X: 3
T: Hundred Pipers March, The
Z: ceolachan
S: https://thesession.org/tunes/9146#setting24521
R: barndance
M: 4/4
L: 1/8
K: Gmaj
|: DG |B3 B B2 [^D2A2] | G2 AG G3 G | D2 G2 F3 G | A6 GA |
B3 B B2 [^D2A2] | G2 AG E2 G2 | D2 G2 A3 B |[1 G6 :|[2 D2 E2 D2 ||
|: G2 |A3 G F2 A2 | d2 dc B2 [^D2B2] | BA GF E2 A2 | D6 DG |
B3 B B2 [^D2A2] | G2 AG E3 E | D2 G2 A3 B |[1 D2 E2 D2 :|[2 G6 |]
